images/icons/icon-arrow_tail_left.svg

<svg width="16" height="16" fill="none" xmlns="http://www.w3.org/2000/svg"><path fill-rule="evenodd" clip-rule="evenodd" d="M6.47466 3.80799c.26035-.26035.26035-.68246 0-.94281-.26035-.26035-.68246-.26035-.94281 0L.86518 7.53185c-.26035.26035-.26035.68246 0 .94281l4.66667 4.66664c.26035.2604.68246.2604.94281 0 .26035-.2603.26035-.6824 0-.9428L2.94607 8.66993H14.6733c.3681 0 .6666-.29848.6666-.66667 0-.36819-.2985-.66667-.6666-.66667H2.94606l3.5286-3.5286Z" fill="#2D3440"/></svg>

<svg width="16" height="16" viewBox="0 0 16 16" fill="none" xmlns="http://www.w3.org/2000/svg">
<path fill-rule="evenodd" clip-rule="evenodd" d="M6.47466 3.80799C6.73501 3.54764 6.73501 3.12553 6.47466 2.86518C6.21431 2.60483 5.7922 2.60483 5.53185 2.86518L0.865184 7.53185C0.604834 7.7922 0.604834 8.21431 0.865184 8.47466L5.53185 13.1413C5.7922 13.4017 6.21431 13.4017 6.47466 13.1413C6.73501 12.881 6.73501 12.4589 6.47466 12.1985L2.94607 8.66993H14.6733C15.0414 8.66993 15.3399 8.37145 15.3399 8.00326C15.3399 7.63507 15.0414 7.33659 14.6733 7.33659H2.94606L6.47466 3.80799Z" fill="#2D3440"/>
</svg>
